svg/charges/warhammer/thousand-sons-preheresy-symbol.svg

<?xml version="1.0" encoding="utf-8"?>
<!-- Generator: Adobe Illustrator 22.1.0, SVG Export Plug-In . SVG Version: 6.00 Build 0)  -->
<svg version="1.1" id="Layer_2" xmlns="http://www.w3.org/2000/svg"    xmlns:dc="http://purl.org/dc/elements/1.1/"
   xmlns:cc="http://creativecommons.org/ns#"
   xmlns:rdf="http://www.w3.org/1999/02/22-rdf-syntax-ns#" xmlns:xlink="http://www.w3.org/1999/xlink" x="0px" y="0px"
	 viewBox="0 0 1000 1000" style="enable-background:new 0 0 1000 1000;" xml:space="preserve"><metadata
   id="metadata97"><rdf:RDF><cc:Work
       rdf:about=""><dc:format>image/svg+xml</dc:format><dc:type
         rdf:resource="http://purl.org/dc/dcmitype/StillImage" /><dc:title></dc:title><dc:creator><cc:Agent><dc:title>http://bakadesign.dk/warhammer-40-000-icons/</dc:title></cc:Agent></dc:creator></cc:Work></rdf:RDF></metadata>
<g style="fill:#ff0000">
<path d="M895.2,497.3c-31.3-4.3-62.5-53.9-77.6-64.7c-17.2-13.8-41.9-13-57.5-10.7c-11.1-37.4-30.1-71.5-55-100.3l38.9-66.1
	l-66,38.8c-38-33.1-85.2-55.8-137.4-63.6c-11.9-18.6-22.6-39.2-22.6-52.7c0-30.2,24.8-27,25.9-74.4c1.1-33.4-27-50.7-30.2-59.3
	c-9.7-17.2-9.7-34.5-9.7-34.5c-28,29.1-4.3,59.3-4.3,93.8c-4.3,31.3-53.9,62.5-64.7,77.6c-13.6,17-13,41.4-10.8,57
	c-38.9,11.2-74.1,30.9-103.7,56.8l-67.3-39.6l39.7,67.6c-30.2,35.4-51.5,78.7-60.3,126.3c-19.6,12.8-42,25.1-56.4,25.1
	c-30.2,0-27-24.8-74.4-25.9c-33.4-1.1-50.7,27-59.3,30.2C25.2,488.6,8,488.6,8,488.6c29.1,28,59.3,4.3,93.8,4.3
	c31.3,4.3,62.5,53.9,77.6,64.7c17.2,13.7,41.8,13,57.4,10.7c10.5,40.1,29.9,76.7,56.1,107.3L253.1,743l67.2-39.5
	c36.6,32.1,81.8,54.6,131.8,63.4c12.7,19.5,24.7,41.6,24.7,55.9c0,30.2-24.8,27-25.9,74.4c-1.1,33.4,27,50.7,30.2,59.3
	c9.7,17.2,9.7,34.5,9.7,34.5c28-29.1,4.3-59.3,4.3-93.8c4.3-31.3,53.9-62.5,64.7-77.6c13.9-17.3,13-42.3,10.6-57.9
	c40.3-10.9,77-30.8,107.6-57.5l65.9,38.8l-38.8-66c33.3-38.4,55.9-86.3,63.4-139c18.5-11.8,38.9-22.4,52.3-22.4
	c30.2,0,27,24.8,74.4,25.9c33.4,1.1,50.7-27,59.3-30.2c17.2-9.7,34.5-9.7,34.5-9.7C959.9,473.6,929.7,497.3,895.2,497.3z
	 M498.5,665.4c-91.1,0-164.9-73.8-164.9-164.9s73.8-164.9,164.9-164.9s164.9,73.8,164.9,164.9S589.6,665.4,498.5,665.4z"/>
</g></svg>

<?xml version="1.0" encoding="UTF-8" standalone="no"?>
<!-- Generator: Adobe Illustrator 22.1.0, SVG Export Plug-In . SVG Version: 6.00 Build 0)  -->

<svg
   xmlns:dc="http://purl.org/dc/elements/1.1/"
   xmlns:cc="http://creativecommons.org/ns#"
   xmlns:rdf="http://www.w3.org/1999/02/22-rdf-syntax-ns#"
   xmlns:svg="http://www.w3.org/2000/svg"
   xmlns="http://www.w3.org/2000/svg"
   xmlns:sodipodi="http://sodipodi.sourceforge.net/DTD/sodipodi-0.dtd"
   xmlns:inkscape="http://www.inkscape.org/namespaces/inkscape"
   version="1.1"
   id="Layer_2"
   x="0px"
   y="0px"
   viewBox="0 0 981 981.20001"
   xml:space="preserve"
   sodipodi:docname="thousand-sons-preheresy-symbol.svg"
   width="981"
   height="981.20001"
   inkscape:version="0.92.3 (2405546, 2018-03-11)"><defs
   id="defs10" /><sodipodi:namedview
   pagecolor="#ffffff"
   bordercolor="#666666"
   borderopacity="1"
   objecttolerance="10"
   gridtolerance="10"
   guidetolerance="10"
   inkscape:pageopacity="0"
   inkscape:pageshadow="2"
   inkscape:window-width="640"
   inkscape:window-height="480"
   id="namedview8"
   showgrid="false"
   inkscape:zoom="0.236"
   inkscape:cx="492"
   inkscape:cy="491"
   inkscape:window-x="0"
   inkscape:window-y="0"
   inkscape:window-maximized="0"
   inkscape:current-layer="Layer_2" /><metadata
   id="metadata97"><rdf:RDF><cc:Work
       rdf:about=""><dc:format>image/svg+xml</dc:format><dc:type
         rdf:resource="http://purl.org/dc/dcmitype/StillImage" /><dc:title></dc:title><dc:creator><cc:Agent><dc:title>http://bakadesign.dk/warhammer-40-000-icons/</dc:title></cc:Agent></dc:creator></cc:Work></rdf:RDF></metadata>
<g
   style="fill:#ff0000"
   id="g5"
   transform="translate(-8,-9.8)">
<path
   d="M 895.2,497.3 C 863.9,493 832.7,443.4 817.6,432.6 800.4,418.8 775.7,419.6 760.1,421.9 749,384.5 730,350.4 705.1,321.6 L 744,255.5 678,294.3 C 640,261.2 592.8,238.5 540.6,230.7 528.7,212.1 518,191.5 518,178 518,147.8 542.8,151 543.9,103.6 545,70.2 516.9,52.9 513.7,44.3 504,27.1 504,9.8 504,9.8 c -28,29.1 -4.3,59.3 -4.3,93.8 -4.3,31.3 -53.9,62.5 -64.7,77.6 -13.6,17 -13,41.4 -10.8,57 -38.9,11.2 -74.1,30.9 -103.7,56.8 l -67.3,-39.6 39.7,67.6 c -30.2,35.4 -51.5,78.7 -60.3,126.3 -19.6,12.8 -42,25.1 -56.4,25.1 -30.2,0 -27,-24.8 -74.4,-25.9 -33.4,-1.1 -50.7,27 -59.3,30.2 -17.3,9.9 -34.5,9.9 -34.5,9.9 29.1,28 59.3,4.3 93.8,4.3 31.3,4.3 62.5,53.9 77.6,64.7 17.2,13.7 41.8,13 57.4,10.7 10.5,40.1 29.9,76.7 56.1,107.3 l -39.8,67.4 67.2,-39.5 c 36.6,32.1 81.8,54.6 131.8,63.4 12.7,19.5 24.7,41.6 24.7,55.9 0,30.2 -24.8,27 -25.9,74.4 -1.1,33.4 27,50.7 30.2,59.3 9.7,17.2 9.7,34.5 9.7,34.5 28,-29.1 4.3,-59.3 4.3,-93.8 4.3,-31.3 53.9,-62.5 64.7,-77.6 13.9,-17.3 13,-42.3 10.6,-57.9 40.3,-10.9 77,-30.8 107.6,-57.5 l 65.9,38.8 -38.8,-66 c 33.3,-38.4 55.9,-86.3 63.4,-139 18.5,-11.8 38.9,-22.4 52.3,-22.4 30.2,0 27,24.8 74.4,25.9 33.4,1.1 50.7,-27 59.3,-30.2 17.2,-9.7 34.5,-9.7 34.5,-9.7 -29.1,-28 -59.3,-4.3 -93.8,-4.3 z M 498.5,665.4 c -91.1,0 -164.9,-73.8 -164.9,-164.9 0,-91.1 73.8,-164.9 164.9,-164.9 91.1,0 164.9,73.8 164.9,164.9 0,91.1 -73.8,164.9 -164.9,164.9 z"
   id="path3"
   inkscape:connector-curvature="0" />
</g></svg>
